images/indikatorenset/4283.svg

<?xml version="1.0" standalone="no"?><!DOCTYPE svg PUBLIC "-//W3C//DTD SVG 1.1//EN" "http://www.w3.org/Graphics/SVG/1.1/DTD/svg11.dtd"><svg xmlns:xlink="http://www.w3.org/1999/xlink" version="1.1" class="highcharts-root" style="font-family:arial;font-size:9pt;" xmlns="http://www.w3.org/2000/svg" width="485" height="415"><desc>Created with Highstock 5.0.14</desc><defs><clipPath id="highcharts-17x47dh-7"><rect x="0" y="0" width="438" height="254" fill="none"></rect></clipPath><clipPath id="highcharts-17x47dh-8"><rect x="0" y="0" width="438" height="254" fill="none"></rect></clipPath></defs><rect fill="#fbfbfb" class="highcharts-background" x="0" y="0" width="485" height="415" rx="0" ry="0"></rect><rect fill="none" class="highcharts-plot-background" x="37" y="90" width="438" height="254"></rect><g class="highcharts-label" style="cursor:pointer;" transform="translate(10,451)"><text x="0" y="0"><tspan>&gt; Indikator-Details</tspan></text></g><g class="highcharts-pane-group"></g><g class="highcharts-grid highcharts-xaxis-grid "><path fill="none" class="highcharts-grid-line" d="M 91.5 90 L 91.5 344" opacity="1"></path><path fill="none" class="highcharts-grid-line" d="M 146.5 90 L 146.5 344" opacity="1"></path><path fill="none" class="highcharts-grid-line" d="M 200.5 90 L 200.5 344" opacity="1"></path><path fill="none" class="highcharts-grid-line" d="M 255.5 90 L 255.5 344" opacity="1"></path><path fill="none" class="highcharts-grid-line" d="M 310.5 90 L 310.5 344" opacity="1"></path><path fill="none" class="highcharts-grid-line" d="M 365.5 90 L 365.5 344" opacity="1"></path><path fill="none" class="highcharts-grid-line" d="M 419.5 90 L 419.5 344" opacity="1"></path><path fill="none" class="highcharts-grid-line" d="M 474.5 90 L 474.5 344" opacity="1"></path><path fill="none" class="highcharts-grid-line" d="M 36.5 90 L 36.5 344" opacity="1"></path></g><g class="highcharts-grid highcharts-yaxis-grid "><path fill="none" stroke="#e6e6e6" stroke-width="1" class="highcharts-grid-line" d="M 37 344.5 L 475 344.5" opacity="1"></path><path fill="none" stroke="#e6e6e6" stroke-width="1" class="highcharts-grid-line" d="M 37 281.5 L 475 281.5" opacity="1"></path><path fill="none" stroke="#e6e6e6" stroke-width="1" class="highcharts-grid-line" d="M 37 217.5 L 475 217.5" opacity="1"></path><path fill="none" stroke="#e6e6e6" stroke-width="1" class="highcharts-grid-line" d="M 37 154.5 L 475 154.5" opacity="1"></path><path fill="none" stroke="#e6e6e6" stroke-width="1" class="highcharts-grid-line" d="M 37 89.5 L 475 89.5" opacity="1"></path></g><g class="highcharts-grid highcharts-yaxis-grid "></g><rect fill="none" class="highcharts-plot-border" x="37" y="90" width="438" height="254"></rect><g class="highcharts-axis highcharts-xaxis "><path fill="none" class="highcharts-axis-line" stroke="#ccd6eb" stroke-width="1" d="M 37 344.5 L 475 344.5"></path></g><g class="highcharts-axis highcharts-yaxis "><path fill="none" class="highcharts-axis-line" d="M 37 90 L 37 344"></path></g><g class="highcharts-axis highcharts-yaxis "><path fill="none" class="highcharts-axis-line" d="M 475 90 L 475 344"></path></g><g class="highcharts-series-group"><g class="highcharts-series highcharts-series-0 highcharts-column-series highcharts-color-undefined " transform="translate(37,90) scale(1 1)" clip-path="url(#highcharts-17x47dh-8)"><rect x="14" y="115" width="27" height="89" fill="#73B97C" class="highcharts-point"></rect><rect x="69" y="33" width="27" height="146" fill="#73B97C" class="highcharts-point"></rect><rect x="124" y="71" width="27" height="127" fill="#73B97C" class="highcharts-point"></rect><rect x="178" y="65" width="27" height="127" fill="#73B97C" class="highcharts-point"></rect><rect x="233" y="20" width="27" height="165" fill="#73B97C" class="highcharts-point"></rect><rect x="288" y="77" width="27" height="146" fill="#73B97C" class="highcharts-point"></rect><rect x="343" y="45" width="27" height="127" fill="#73B97C" class="highcharts-point"></rect><rect x="397" y="90" width="27" height="95" fill="#73B97C" class="highcharts-point"></rect></g><g class="highcharts-markers highcharts-series-0 highcharts-column-series highcharts-color-undefined " transform="translate(37,90) scale(1 1)" clip-path="none"></g><g class="highcharts-series highcharts-series-1 highcharts-column-series highcharts-color-undefined " transform="translate(37,90) scale(1 1)" clip-path="url(#highcharts-17x47dh-8)"><rect x="14" y="204" width="27" height="51" fill="#68AB2B" class="highcharts-point"></rect><rect x="69" y="179" width="27" height="76" fill="#68AB2B" class="highcharts-point"></rect><rect x="124" y="198" width="27" height="57" fill="#68AB2B" class="highcharts-point"></rect><rect x="178" y="192" width="27" height="63" fill="#68AB2B" class="highcharts-point"></rect><rect x="233" y="185" width="27" height="70" fill="#68AB2B" class="highcharts-point"></rect><rect x="288" y="223" width="27" height="32" fill="#68AB2B" class="highcharts-point"></rect><rect x="343" y="172" width="27" height="83" fill="#68AB2B" class="highcharts-point"></rect><rect x="397" y="185" width="27" height="70" fill="#68AB2B" class="highcharts-point"></rect></g><g class="highcharts-markers highcharts-series-1 highcharts-column-series highcharts-color-undefined " transform="translate(37,90) scale(1 1)" clip-path="none"></g></g><text x="10" text-anchor="start" class="highcharts-title" style="color:#000000;font-size:1.1em;font-weight:bold;fill:#000000;" y="20"><tspan>Nutzungsdruck</tspan></text><text x="10" text-anchor="start" class="highcharts-subtitle" style="color:#000000;font-size:0.9em;fill:#000000;" y="38"><tspan>Anzahl bewilligte Gesuche</tspan></text><g class="highcharts-legend" transform="translate(10,40)"><rect fill="none" class="highcharts-legend-box" rx="0" ry="0" x="0" y="0" width="374" height="38" visibility="visible"></rect><g><g><g class="highcharts-legend-item highcharts-column-series highcharts-color-undefined highcharts-series-0" transform="translate(12,7)"><text x="21" style="color:#333333;font-size:1em;font-weight:normal;cursor:pointer;fill:#333333;" text-anchor="start" y="15"><tspan>Bewilligte Veranstaltungen</tspan></text><rect x="2" y="4" width="12" height="12" fill="#73B97C" class="highcharts-point"></rect></g><g class="highcharts-legend-item highcharts-column-series highcharts-color-undefined highcharts-series-1" transform="translate(194.296875,7)"><text x="21" y="15" style="color:#333333;font-size:1em;font-weight:normal;cursor:pointer;fill:#333333;" text-anchor="start"><tspan>Bewilligte Rodungsgesuche</tspan></text><rect x="2" y="4" width="12" height="12" fill="#68AB2B" class="highcharts-point"></rect></g></g></g></g><g class="highcharts-axis-labels highcharts-xaxis-labels "><text x="64.375" style="color:#000000;cursor:default;font-size:0.9em;fill:#000000;" text-anchor="middle" transform="translate(0,0)" y="363" opacity="1">2008</text><text x="119.125" style="color:#000000;cursor:default;font-size:0.9em;fill:#000000;" text-anchor="middle" transform="translate(0,0)" y="363" opacity="1">2009</text><text x="173.875" style="color:#000000;cursor:default;font-size:0.9em;fill:#000000;" text-anchor="middle" transform="translate(0,0)" y="363" opacity="1">2010</text><text x="228.625" style="color:#000000;cursor:default;font-size:0.9em;fill:#000000;" text-anchor="middle" transform="translate(0,0)" y="363" opacity="1">2011</text><text x="283.375" style="color:#000000;cursor:default;font-size:0.9em;fill:#000000;" text-anchor="middle" transform="translate(0,0)" y="363" opacity="1">2012</text><text x="338.125" style="color:#000000;cursor:default;font-size:0.9em;fill:#000000;" text-anchor="middle" transform="translate(0,0)" y="363" opacity="1">2013</text><text x="392.875" style="color:#000000;cursor:default;font-size:0.9em;fill:#000000;" text-anchor="middle" transform="translate(0,0)" y="363" opacity="1">2014</text><text x="447.625" style="color:#000000;cursor:default;font-size:0.9em;fill:#000000;" text-anchor="middle" transform="translate(0,0)" y="363" opacity="1">2015</text></g><g class="highcharts-axis-labels highcharts-yaxis-labels "><text x="22" style="color:#000000;cursor:default;font-size:0.9em;fill:#000000;" text-anchor="end" transform="translate(0,0)" y="349" opacity="1"><tspan>0</tspan></text><text x="22" style="color:#000000;cursor:default;font-size:0.9em;fill:#000000;" text-anchor="end" transform="translate(0,0)" y="285" opacity="1"><tspan>10</tspan></text><text x="22" style="color:#000000;cursor:default;font-size:0.9em;fill:#000000;" text-anchor="end" transform="translate(0,0)" y="222" opacity="1"><tspan>20</tspan></text><text x="22" style="color:#000000;cursor:default;font-size:0.9em;fill:#000000;" text-anchor="end" transform="translate(0,0)" y="158" opacity="1"><tspan>30</tspan></text><text x="22" style="color:#000000;cursor:default;font-size:0.9em;fill:#000000;" text-anchor="end" transform="translate(0,0)" y="95" opacity="1"><tspan>40</tspan></text></g><g class="highcharts-axis-labels highcharts-yaxis-labels "></g><text x="10" class="highcharts-credits" text-anchor="start" style="cursor:default;color:#000000;font-size:0.8em;fill:#000000;" y="400"><tspan>Quelle: Amt für Wald beider Basel</tspan></text></svg>

<svg class="highcharts-root" xmlns="http://www.w3.org/2000/svg" viewBox="0 0 485 415" font-family="Arial" font-size="12">
    <defs>
        <clipPath id="a">
            <path fill="none" d="M0 0h438v254H0z"/>
        </clipPath>
    </defs>
    <rect fill="#fbfbfb" class="highcharts-background" width="485" height="415" rx="0" ry="0"/>
    <path fill="none" class="highcharts-plot-background" d="M37 90h438v254H37z"/>
    <text transform="translate(10 451)" class="highcharts-label" cursor="pointer">
        <tspan>&gt; Indikator-Details</tspan>
    </text>
    <g class="highcharts-grid highcharts-xaxis-grid">
        <path fill="none" class="highcharts-grid-line" d="M91.5 90v254m0-254v254m55-254v254m0-254v254m54-254v254m0-254v254m55-254v254m0-254v254m55-254v254m0-254v254m55-254v254m0-254v254m54-254v254m0-254v254m55-254v254m0-254v254M36.5 90v254m0-254v254"/>
    </g>
    <g class="highcharts-grid highcharts-yaxis-grid">
        <path fill="none" stroke="#e6e6e6" class="highcharts-grid-line" d="M37 344.5h438m-438-63h438m-438-64h438m-438-63h438m-438-65h438"/>
    </g>
    <path fill="none" class="highcharts-plot-border" d="M37 90h438v254H37z"/>
    <g class="highcharts-axis highcharts-xaxis">
        <path fill="none" class="highcharts-axis-line" stroke="#ccd6eb" d="M37 344.5h438"/>
    </g>
    <g class="highcharts-axis highcharts-yaxis">
        <path fill="none" class="highcharts-axis-line" d="M37 90v254"/>
    </g>
    <g class="highcharts-axis highcharts-yaxis">
        <path fill="none" class="highcharts-axis-line" d="M475 90v254"/>
    </g>
    <g class="highcharts-series-group">
        <g class="highcharts-series highcharts-series-0 highcharts-column-series highcharts-color-undefined highcharts-tracker" transform="translate(37 90)" clip-path="url(#a)">
            <path fill="#73B97C" class="highcharts-point" d="M14 115h27v89H14zm55-82h27v146H69zm55 38h27v127h-27zm54-6h27v127h-27zm55-45h27v165h-27zm55 57h27v146h-27zm55-32h27v127h-27zm54 45h27v95h-27z"/>
        </g>
        <g class="highcharts-series highcharts-series-1 highcharts-column-series highcharts-color-undefined highcharts-tracker" transform="translate(37 90)" clip-path="url(#a)">
            <path fill="#68AB2B" class="highcharts-point" d="M14 204h27v51H14zm55-25h27v76H69zm55 19h27v57h-27zm54-6h27v63h-27zm55-7h27v70h-27zm55 38h27v32h-27zm55-51h27v83h-27zm54 13h27v70h-27z"/>
        </g>
    </g>
    <text x="10" class="highcharts-title" y="20" color="#000" font-size="1.1em" font-weight="700">
        <tspan>Nutzungsdruck</tspan>
    </text>
    <text x="10" class="highcharts-subtitle" y="38" color="#000" font-size=".9em">
        <tspan>Anzahl bewilligte Gesuche</tspan>
    </text>
    <g class="highcharts-legend" transform="translate(10 40)">
        <rect fill="none" class="highcharts-legend-box" rx="0" ry="0" width="374" height="38"/>
        <g class="highcharts-legend-item highcharts-column-series highcharts-color-undefined highcharts-series-0">
            <text x="21" y="15" color="#333" font-size="1em" font-weight="400" cursor="pointer" fill="#333" transform="translate(12 7)">
                <tspan>Bewilligte Veranstaltungen</tspan>
            </text>
            <path fill="#73B97C" class="highcharts-point" d="M14 11h12v12H14z"/>
        </g>
        <g class="highcharts-legend-item highcharts-column-series highcharts-color-undefined highcharts-series-1">
            <text x="21" y="15" color="#333" font-size="1em" font-weight="400" cursor="pointer" fill="#333" transform="translate(194.297 7)">
                <tspan>Bewilligte Rodungsgesuche</tspan>
            </text>
            <path fill="#68AB2B" class="highcharts-point" d="M196.297 11h12v12h-12z"/>
        </g>
    </g>
    <g class="highcharts-axis-labels highcharts-xaxis-labels" text-anchor="middle" color="#000" cursor="default" font-size=".9em">
        <text x="64.375" y="363">
            2008
        </text>
        <text x="119.125" y="363">
            2009
        </text>
        <text x="173.875" y="363">
            2010
        </text>
        <text x="228.625" y="363">
            2011
        </text>
        <text x="283.375" y="363">
            2012
        </text>
        <text x="338.125" y="363">
            2013
        </text>
        <text x="392.875" y="363">
            2014
        </text>
        <text x="447.625" y="363">
            2015
        </text>
    </g>
    <g class="highcharts-axis-labels highcharts-yaxis-labels" text-anchor="end" color="#000" cursor="default" font-size=".9em">
        <text x="22" y="349">
            <tspan>0</tspan>
        </text>
        <text x="22" y="285">
            <tspan>10</tspan>
        </text>
        <text x="22" y="222">
            <tspan>20</tspan>
        </text>
        <text x="22" y="158">
            <tspan>30</tspan>
        </text>
        <text x="22" y="95">
            <tspan>40</tspan>
        </text>
    </g>
    <text x="10" class="highcharts-credits" y="400" cursor="default" color="#000" font-size=".8em">
        <tspan>Quelle: Amt für Wald beider Basel</tspan>
    </text>
</svg>
